X: 11
T: Bunch Of Keys, The
Z: John E Roche
S: https://thesession.org/tunes/344#setting46897
R: reel
M: 4/4
L: 1/8
K: Gmaj
GF|:DGGF G2 GA|BGdG eGdG|D2 D>E FEFG|AFcF dFcF|
DGGF GFGA|BAGA Bcde|=fage ^fdcA|BGAF G2 G2:|
|:dggf g2 ga|bgag bgaf|dcde fefg|ag fg/a/ gfdc|
dggf gfga|ba/g/ ag/f/ gfde|fa af/e/ fd cB/A/|BGAF G2 G2:|

